Newaita-dark/apps/24/media-optical-audio-new.svg

<?xml version="1.0" encoding="UTF-8"?>
<svg xmlns="http://www.w3.org/2000/svg" xmlns:xlink="http://www.w3.org/1999/xlink" width="24px" height="24px" viewBox="0 0 24 24" version="1.1">
<defs>
<radialGradient id="radial0" gradientUnits="userSpaceOnUse" cx="450.908936" cy="189.579361" fx="450.908936" fy="189.579361" r="21.166656" gradientTransform="matrix(0.000000130628,-0.0585994,-0.105479,-0.0000000761539,33.392364,47.696497)">
<stop offset="0" style="stop-color:rgb(0%,0%,0%);stop-opacity:0.313726;"/>
<stop offset="0.222222" style="stop-color:rgb(0%,0%,0%);stop-opacity:0.27451;"/>
<stop offset="1" style="stop-color:rgb(0%,0%,0%);stop-opacity:0;"/>
</radialGradient>
<radialGradient id="radial1" gradientUnits="userSpaceOnUse" cx="450.908936" cy="189.579361" fx="450.908936" fy="189.579361" r="21.166656" gradientTransform="matrix(-0.000000130628,0.0585994,0.105479,0.0000000761539,-9.577589,-5.645612)">
<stop offset="0" style="stop-color:rgb(0%,0%,0%);stop-opacity:0.313726;"/>
<stop offset="0.222222" style="stop-color:rgb(0%,0%,0%);stop-opacity:0.27451;"/>
<stop offset="1" style="stop-color:rgb(0%,0%,0%);stop-opacity:0;"/>
</radialGradient>
<radialGradient id="radial2" gradientUnits="userSpaceOnUse" cx="450.908936" cy="189.579361" fx="450.908936" fy="189.579361" r="21.166656" gradientTransform="matrix(-0.000000130628,-0.0585994,0.105479,-0.0000000761539,-9.577589,47.696497)">
<stop offset="0" style="stop-color:rgb(0%,0%,0%);stop-opacity:0.313726;"/>
<stop offset="0.222222" style="stop-color:rgb(0%,0%,0%);stop-opacity:0.27451;"/>
<stop offset="1" style="stop-color:rgb(0%,0%,0%);stop-opacity:0;"/>
</radialGradient>
<radialGradient id="radial3" gradientUnits="userSpaceOnUse" cx="450.908936" cy="189.579361" fx="450.908936" fy="189.579361" r="21.166656" gradientTransform="matrix(0.000000130628,0.0585994,-0.105479,0.0000000761539,33.392362,-5.645612)">
<stop offset="0" style="stop-color:rgb(0%,0%,0%);stop-opacity:0.313726;"/>
<stop offset="0.222222" style="stop-color:rgb(0%,0%,0%);stop-opacity:0.27451;"/>
<stop offset="1" style="stop-color:rgb(0%,0%,0%);stop-opacity:0;"/>
</radialGradient>
<linearGradient id="linear0" gradientUnits="userSpaceOnUse" x1="255.323059" y1="233.5" x2="255.323044" y2="254.666656" gradientTransform="matrix(0.01002,0,0,0.0468795,9.34904,10.079088)">
<stop offset="0" style="stop-color:rgb(0%,0%,0%);stop-opacity:0.27451;"/>
<stop offset="1" style="stop-color:rgb(0%,0%,0%);stop-opacity:0;"/>
</linearGradient>
<linearGradient id="linear1" gradientUnits="userSpaceOnUse" x1="254" y1="-168.666672" x2="254" y2="233.5" gradientTransform="matrix(0.0468795,0,0,0.0468795,0,10.079087)">
<stop offset="0" style="stop-color:rgb(87.843138%,87.843138%,87.843138%);stop-opacity:1;"/>
<stop offset="1" style="stop-color:rgb(74.117649%,74.117649%,74.117649%);stop-opacity:1;"/>
</linearGradient>
<linearGradient id="linear2" gradientUnits="userSpaceOnUse" x1="960" y1="1695.118164" x2="960" y2="1315.118164" gradientTransform="matrix(0.0124035,0,0,0.0124035,0,0.00000000000000141)">
<stop offset="0" style="stop-color:rgb(14.901961%,77.64706%,85.490197%);stop-opacity:1;"/>
<stop offset="1" style="stop-color:rgb(30.19608%,81.568629%,88.235295%);stop-opacity:1;"/>
</linearGradient>
<linearGradient id="linear3" gradientUnits="userSpaceOnUse" x1="254" y1="117.083344" x2="254" y2="-52.25" gradientTransform="matrix(3.779528,0,0,3.779528,0,812.59845)">
<stop offset="0" style="stop-color:rgb(96.078432%,96.078432%,96.078432%);stop-opacity:1;"/>
<stop offset="1" style="stop-color:rgb(87.843138%,87.843138%,87.843138%);stop-opacity:1;"/>
</linearGradient>
<filter id="alpha" filterUnits="objectBoundingBox" x="0%" y="0%" width="100%" height="100%">
  <feColorMatrix type="matrix" in="SourceGraphic" values="0 0 0 0 1 0 0 0 0 1 0 0 0 0 1 0 0 0 1 0"/>
</filter>
<mask id="mask0">
  <g filter="url(#alpha)">
<rect x="0" y="0" width="24" height="24" style="fill:rgb(0%,0%,0%);fill-opacity:0.99;stroke:none;"/>
  </g>
</mask>
<clipPath id="clip1">
  <rect x="0" y="0" width="24" height="24"/>
</clipPath>
<g id="surface5" clip-path="url(#clip1)">
<path style=" stroke:none;fill-rule:nonzero;fill:rgb(0%,0%,0%);fill-opacity:0.117647;" d="M 11.90625 18.542969 C 12.320312 18.542969 12.652344 18.878906 12.652344 19.289062 C 12.652344 19.699219 12.320312 20.03125 11.90625 20.03125 C 11.496094 20.03125 11.164062 19.699219 11.164062 19.289062 C 11.164062 18.878906 11.496094 18.542969 11.90625 18.542969 Z M 11.90625 18.542969 "/>
</g>
<mask id="mask1">
  <g filter="url(#alpha)">
<rect x="0" y="0" width="24" height="24" style="fill:rgb(0%,0%,0%);fill-opacity:0.99;stroke:none;"/>
  </g>
</mask>
<clipPath id="clip2">
  <rect x="0" y="0" width="24" height="24"/>
</clipPath>
<g id="surface8" clip-path="url(#clip2)">
<path style=" stroke:none;fill-rule:nonzero;fill:rgb(0%,0%,0%);fill-opacity:0.235294;" d="M 11.90625 18.542969 C 11.496094 18.542969 11.164062 18.875 11.164062 19.289062 C 11.164062 19.332031 11.167969 19.371094 11.171875 19.414062 C 11.230469 19.058594 11.539062 18.792969 11.90625 18.792969 C 12.277344 18.792969 12.582031 19.058594 12.640625 19.414062 C 12.648438 19.371094 12.652344 19.332031 12.652344 19.289062 C 12.652344 18.875 12.320312 18.542969 11.90625 18.542969 Z M 11.90625 18.542969 "/>
</g>
<mask id="mask2">
  <g filter="url(#alpha)">
<rect x="0" y="0" width="24" height="24" style="fill:rgb(0%,0%,0%);fill-opacity:0.99;stroke:none;"/>
  </g>
</mask>
<clipPath id="clip3">
  <rect x="0" y="0" width="24" height="24"/>
</clipPath>
<g id="surface11" clip-path="url(#clip3)">
<path style=" stroke:none;fill-rule:nonzero;fill:rgb(100%,100%,100%);fill-opacity:0.392157;" d="M 11.90625 20.28125 C 11.496094 20.28125 11.164062 19.949219 11.164062 19.535156 C 11.164062 19.496094 11.167969 19.453125 11.171875 19.414062 C 11.230469 19.765625 11.539062 20.03125 11.90625 20.03125 C 12.277344 20.03125 12.582031 19.765625 12.640625 19.414062 C 12.648438 19.453125 12.652344 19.496094 12.652344 19.535156 C 12.652344 19.949219 12.320312 20.28125 11.90625 20.28125 Z M 11.90625 20.28125 "/>
</g>
<mask id="mask3">
  <g filter="url(#alpha)">
<rect x="0" y="0" width="24" height="24" style="fill:rgb(0%,0%,0%);fill-opacity:0.99;stroke:none;"/>
  </g>
</mask>
<clipPath id="clip4">
  <rect x="0" y="0" width="24" height="24"/>
</clipPath>
<g id="surface14" clip-path="url(#clip4)">
<path style="fill:none;stroke-width:3;stroke-linecap:round;stroke-linejoin:round;stroke:rgb(12.941177%,12.941177%,12.941177%);stroke-opacity:1;stroke-miterlimit:4;" d="M 253.975747 180.545561 C 262.808236 180.545561 269.890893 187.711543 269.890893 196.460707 C 269.890893 205.209872 262.808236 212.292529 253.975747 212.292529 C 245.226582 212.292529 238.143925 205.209872 238.143925 196.460707 C 238.143925 187.711543 245.226582 180.545561 253.975747 180.545561 Z M 253.975747 180.545561 " transform="matrix(0.0468795,0,0,0.0468795,0,10.079087)"/>
</g>
</defs>
<g id="surface1">
<path style=" stroke:none;fill-rule:nonzero;fill:url(#radial0);" d="M 13.644531 21.027344 L 15.628906 21.027344 L 15.628906 20.03125 L 13.644531 20.03125 Z M 13.644531 21.027344 "/>
<path style=" stroke:none;fill-rule:nonzero;fill:url(#radial1);" d="M 10.171875 21.027344 L 8.1875 21.027344 L 8.1875 22.019531 L 10.171875 22.019531 Z M 10.171875 21.027344 "/>
<path style=" stroke:none;fill-rule:nonzero;fill:url(#radial2);" d="M 10.171875 21.027344 L 8.1875 21.027344 L 8.1875 20.03125 L 10.171875 20.03125 Z M 10.171875 21.027344 "/>
<path style=" stroke:none;fill-rule:nonzero;fill:url(#radial3);" d="M 13.644531 21.027344 L 15.628906 21.027344 L 15.628906 22.019531 L 13.644531 22.019531 Z M 13.644531 21.027344 "/>
<path style=" stroke:none;fill-rule:nonzero;fill:url(#linear0);" d="M 10.171875 20.777344 L 13.644531 20.777344 L 13.644531 22.019531 L 10.171875 22.019531 Z M 10.171875 20.777344 "/>
<path style=" stroke:none;fill-rule:nonzero;fill:url(#linear1);" d="M 11.90625 2.171875 C 6.683594 2.171875 2.480469 6.375 2.480469 11.597656 C 2.480469 16.820312 6.683594 21.027344 11.90625 21.027344 C 17.128906 21.027344 21.335938 16.820312 21.335938 11.597656 C 21.335938 6.375 17.128906 2.171875 11.90625 2.171875 Z M 11.90625 9.613281 C 13.007812 9.613281 13.890625 10.5 13.890625 11.597656 C 13.890625 12.699219 13.007812 13.582031 11.90625 13.582031 C 10.808594 13.582031 9.921875 12.699219 9.921875 11.597656 C 9.921875 10.5 10.808594 9.613281 11.90625 9.613281 Z M 11.90625 9.613281 "/>
<path style=" stroke:none;fill-rule:nonzero;fill:url(#linear2);" d="M 11.90625 16.933594 C 11.753906 16.933594 11.597656 17.054688 11.410156 17.304688 C 10.792969 18.171875 10.394531 18.671875 10.417969 19.289062 L 10.417969 20.910156 C 10.902344 20.984375 11.402344 21.027344 11.90625 21.027344 C 12.414062 21.027344 12.910156 20.984375 13.394531 20.910156 L 13.394531 19.289062 C 13.394531 18.667969 13.023438 18.171875 12.402344 17.304688 C 12.21875 17.054688 12.0625 16.933594 11.90625 16.933594 Z M 11.90625 16.933594 "/>
<path style=" stroke:none;fill-rule:nonzero;fill:rgb(0%,0%,0%);fill-opacity:0.196078;" d="M 11.90625 21.027344 C 6.683594 21.027344 2.480469 16.820312 2.480469 11.597656 C 2.480469 11.566406 2.480469 11.539062 2.480469 11.507812 C 2.53125 16.6875 6.714844 20.839844 11.90625 20.839844 C 17.097656 20.839844 21.285156 16.6875 21.332031 11.507812 C 21.332031 11.539062 21.335938 11.566406 21.335938 11.597656 C 21.335938 16.820312 17.128906 21.027344 11.90625 21.027344 Z M 11.90625 21.027344 "/>
<path style=" stroke:none;fill-rule:nonzero;fill:rgb(100%,100%,100%);fill-opacity:0.588235;" d="M 11.90625 2.171875 C 6.683594 2.171875 2.480469 6.375 2.480469 11.597656 C 2.480469 11.628906 2.480469 11.660156 2.480469 11.691406 C 2.53125 6.511719 6.714844 2.355469 11.90625 2.355469 C 17.097656 2.355469 21.285156 6.511719 21.332031 11.691406 C 21.332031 11.660156 21.335938 11.628906 21.335938 11.597656 C 21.335938 6.375 17.128906 2.171875 11.90625 2.171875 Z M 11.90625 2.171875 "/>
<path style=" stroke:none;fill-rule:nonzero;fill:rgb(12.941177%,12.941177%,12.941177%);fill-opacity:1;" d="M 11.90625 2.101562 C 6.648438 2.101562 2.410156 6.339844 2.410156 11.597656 C 2.410156 16.859375 6.648438 21.097656 11.90625 21.097656 C 17.167969 21.097656 21.40625 16.859375 21.40625 11.597656 C 21.40625 6.339844 17.167969 2.101562 11.90625 2.101562 Z M 11.90625 2.242188 C 17.09375 2.242188 21.265625 6.414062 21.265625 11.597656 C 21.265625 16.785156 17.09375 20.957031 11.90625 20.957031 C 6.722656 20.957031 2.550781 16.785156 2.550781 11.597656 C 2.550781 6.414062 6.722656 2.242188 11.90625 2.242188 Z M 11.90625 2.242188 "/>
<path style=" stroke:none;fill-rule:nonzero;fill:rgb(100%,100%,100%);fill-opacity:0.588235;" d="M 5.566406 5.257812 C 5.039062 5.796875 4.578125 6.402344 4.203125 7.058594 C 3.824219 7.714844 3.53125 8.414062 3.324219 9.140625 L 5.335938 9.679688 C 5.644531 8.566406 6.230469 7.550781 7.039062 6.726562 Z M 7.410156 7.101562 C 6.667969 7.859375 6.128906 8.792969 5.847656 9.816406 L 10.125 10.960938 C 10.207031 10.691406 10.351562 10.441406 10.542969 10.234375 Z M 13.707031 12.0625 C 13.667969 12.195312 13.609375 12.328125 13.539062 12.449219 C 13.46875 12.570312 13.382812 12.6875 13.289062 12.789062 L 16.421875 15.925781 C 17.164062 15.164062 17.703125 14.230469 17.984375 13.207031 Z M 18.496094 13.34375 C 18.1875 14.457031 17.601562 15.472656 16.796875 16.296875 L 18.265625 17.765625 C 18.792969 17.226562 19.25 16.621094 19.628906 15.964844 C 20.007812 15.3125 20.300781 14.609375 20.503906 13.882812 Z M 18.496094 13.34375 "/>
<path style="fill-rule:nonzero;fill:url(#linear3);stroke-width:11.338583;stroke-linecap:round;stroke-linejoin:miter;stroke:rgb(20%,20%,20%);stroke-opacity:1;stroke-miterlimit:4;" d="M 959.908384 615.059407 C 782.602472 615.059407 639.938923 757.722956 639.938923 935.028869 C 639.938923 1112.334781 782.602472 1254.99833 959.908384 1254.99833 C 1137.214296 1254.99833 1279.877845 1112.334781 1279.877845 935.028869 C 1279.877845 757.722956 1137.214296 615.059407 959.908384 615.059407 Z M 959.908384 775.044138 C 1048.718805 775.044138 1119.893114 846.533378 1119.893114 935.028869 C 1119.893114 1023.83929 1048.718805 1095.013599 959.908384 1095.013599 C 871.412893 1095.013599 799.923653 1023.83929 799.923653 935.028869 C 799.923653 846.533378 871.412893 775.044138 959.908384 775.044138 Z M 959.908384 775.044138 " transform="matrix(0.0124035,0,0,0.0124035,0,0)"/>
<path style=" stroke:none;fill-rule:nonzero;fill:rgb(100%,100%,100%);fill-opacity:0.392157;" d="M 11.90625 16.933594 C 11.753906 16.933594 11.597656 17.054688 11.410156 17.304688 C 10.792969 18.171875 10.394531 18.671875 10.417969 19.289062 L 10.417969 19.566406 C 10.4375 18.992188 10.824219 18.5 11.410156 17.675781 C 11.597656 17.429688 11.753906 17.304688 11.90625 17.304688 C 12.0625 17.304688 12.21875 17.429688 12.402344 17.675781 C 13.023438 18.542969 13.394531 19.039062 13.394531 19.660156 L 13.394531 19.289062 C 13.394531 18.667969 13.023438 18.171875 12.402344 17.304688 C 12.21875 17.054688 12.0625 16.933594 11.90625 16.933594 Z M 11.90625 16.933594 "/>
<path style="fill:none;stroke-width:11.338583;stroke-linecap:square;stroke-linejoin:bevel;stroke:rgb(12.941177%,12.941177%,12.941177%);stroke-opacity:1;stroke-miterlimit:4;" d="M 959.908384 1365.22403 C 947.626091 1365.22403 935.028869 1374.986878 919.912201 1395.142434 C 870.153171 1465.057021 838.030252 1505.368135 839.919836 1555.127165 L 839.919836 1685.823353 C 878.971227 1691.807033 919.28234 1695.27127 959.908384 1695.27127 C 1000.849358 1695.27127 1040.845541 1691.807033 1079.896932 1685.823353 L 1079.896932 1555.127165 C 1079.896932 1505.053204 1049.978527 1465.057021 999.904566 1395.142434 C 985.10283 1374.986878 972.505607 1365.22403 959.908384 1365.22403 Z M 959.908384 1365.22403 " transform="matrix(0.0124035,0,0,0.0124035,0,0)"/>
<path style=" stroke:none;fill-rule:nonzero;fill:rgb(0%,0%,0%);fill-opacity:0.235294;" d="M 10.417969 19.195312 C 10.417969 19.226562 10.417969 19.257812 10.417969 19.289062 Z M 10.417969 20.527344 L 10.417969 20.910156 C 10.902344 20.984375 11.402344 21.027344 11.90625 21.027344 C 12.414062 21.027344 12.910156 20.984375 13.394531 20.910156 L 13.394531 20.527344 C 12.910156 20.605469 12.414062 20.644531 11.90625 20.644531 C 11.402344 20.644531 10.902344 20.605469 10.417969 20.527344 Z M 10.417969 20.527344 "/>
<use xlink:href="#surface5" mask="url(#mask0)"/>
<use xlink:href="#surface8" mask="url(#mask1)"/>
<use xlink:href="#surface11" mask="url(#mask2)"/>
<use xlink:href="#surface14" mask="url(#mask3)"/>
</g>
</svg>

<svg xmlns="http://www.w3.org/2000/svg" width="32" height="32" viewBox="0 0 24 24"><defs><radialGradient id="a" gradientUnits="userSpaceOnUse" cx="450.909" cy="189.579" fx="450.909" fy="189.579" r="21.167" gradientTransform="matrix(0 -.0586 -.10548 0 33.392 47.696)"><stop offset="0" stop-opacity=".314"/><stop offset=".222" stop-opacity=".275"/><stop offset="1" stop-opacity="0"/></radialGradient><radialGradient id="b" gradientUnits="userSpaceOnUse" cx="450.909" cy="189.579" fx="450.909" fy="189.579" r="21.167" gradientTransform="matrix(0 .0586 .10548 0 -9.578 -5.646)"><stop offset="0" stop-opacity=".314"/><stop offset=".222" stop-opacity=".275"/><stop offset="1" stop-opacity="0"/></radialGradient><radialGradient id="c" gradientUnits="userSpaceOnUse" cx="450.909" cy="189.579" fx="450.909" fy="189.579" r="21.167" gradientTransform="matrix(0 -.0586 .10548 0 -9.578 47.696)"><stop offset="0" stop-opacity=".314"/><stop offset=".222" stop-opacity=".275"/><stop offset="1" stop-opacity="0"/></radialGradient><radialGradient id="d" gradientUnits="userSpaceOnUse" cx="450.909" cy="189.579" fx="450.909" fy="189.579" r="21.167" gradientTransform="matrix(0 .0586 -.10548 0 33.392 -5.646)"><stop offset="0" stop-opacity=".314"/><stop offset=".222" stop-opacity=".275"/><stop offset="1" stop-opacity="0"/></radialGradient><linearGradient id="e" gradientUnits="userSpaceOnUse" x1="255.323" y1="233.5" x2="255.323" y2="254.667" gradientTransform="matrix(.01002 0 0 .04688 9.349 10.08)"><stop offset="0" stop-opacity=".275"/><stop offset="1" stop-opacity="0"/></linearGradient><linearGradient id="f" gradientUnits="userSpaceOnUse" x1="254" y1="-168.667" x2="254" y2="233.5" gradientTransform="matrix(.04688 0 0 .04688 0 10.08)"><stop offset="0" stop-color="#e0e0e0"/><stop offset="1" stop-color="#bdbdbd"/></linearGradient><linearGradient id="g" gradientUnits="userSpaceOnUse" x1="960" y1="1695.118" x2="960" y2="1315.118" gradientTransform="matrix(.0124 0 0 .0124 0 0)"><stop offset="0" stop-color="#26c6da"/><stop offset="1" stop-color="#4dd0e1"/></linearGradient><linearGradient id="h" gradientUnits="userSpaceOnUse" x1="254" y1="117.083" x2="254" y2="-52.25" gradientTransform="matrix(3.77953 0 0 3.77953 0 812.598)"><stop offset="0" stop-color="#f5f5f5"/><stop offset="1" stop-color="#e0e0e0"/></linearGradient></defs><path d="M13.645 21.027h1.984v-.996h-1.984zm0 0" fill="url(#a)"/><path d="M10.172 21.027H8.187v.993h1.985zm0 0" fill="url(#b)"/><path d="M10.172 21.027H8.187v-.996h1.985zm0 0" fill="url(#c)"/><path d="M13.645 21.027h1.984v.993h-1.984zm0 0" fill="url(#d)"/><path d="M10.172 20.777h3.473v1.243h-3.473zm0 0" fill="url(#e)"/><path d="M11.906 2.172a9.404 9.404 0 0 0-9.426 9.426 9.408 9.408 0 0 0 9.426 9.43 9.41 9.41 0 0 0 9.43-9.43 9.408 9.408 0 0 0-9.43-9.426zm0 7.441a1.98 1.98 0 0 1 1.985 1.985 1.977 1.977 0 0 1-1.985 1.984 1.98 1.98 0 0 1-1.984-1.984c0-1.098.887-1.985 1.984-1.985zm0 0" fill="url(#f)"/><path d="M11.906 16.188c-.152 0-.308.125-.496.37-.617.872-1.015 1.368-.992 1.985v1.988c0 .274.223.496.496.496h1.984a.494.494 0 0 0 .497-.496v-1.988c0-.617-.372-1.113-.993-1.984-.183-.247-.34-.372-.496-.372zm0 0" fill="url(#g)"/><path d="M11.906 21.027a9.408 9.408 0 0 1-9.426-9.43v-.09a9.404 9.404 0 0 0 9.426 9.333 9.402 9.402 0 0 0 9.426-9.332c0 .031.004.058.004.09a9.41 9.41 0 0 1-9.43 9.43zm0 0" fill-opacity=".196"/><path d="M11.906 2.172a9.404 9.404 0 0 0-9.426 9.52 9.408 9.408 0 0 1 9.426-9.337 9.405 9.405 0 0 1 9.426 9.336c0-.03.004-.062.004-.093a9.408 9.408 0 0 0-9.43-9.426zm0 0" fill="#fff" fill-opacity=".588"/><path d="M11.906 2.102a9.48 9.48 0 0 0-9.496 9.496 9.48 9.48 0 0 0 9.496 9.5 9.48 9.48 0 0 0 9.5-9.5 9.48 9.48 0 0 0-9.5-9.496zm0 .14a9.335 9.335 0 0 1 9.36 9.356 9.336 9.336 0 0 1-9.36 9.359 9.335 9.335 0 0 1-9.355-9.36 9.334 9.334 0 0 1 9.355-9.355zm0 0" fill="#212121"/><path d="M5.566 5.258a8.884 8.884 0 0 0-1.363 1.8 9.203 9.203 0 0 0-.879 2.083l2.012.539a6.816 6.816 0 0 1 1.703-2.953zM7.41 7.102a6.248 6.248 0 0 0-1.562 2.714l4.277 1.145c.082-.27.227-.52.418-.727zm6.297 4.96c-.039.133-.098.266-.168.387s-.156.239-.25.34l3.133 3.137a6.283 6.283 0 0 0 1.562-2.719zm4.79 1.282a6.847 6.847 0 0 1-1.7 2.953l1.469 1.469a9.029 9.029 0 0 0 2.238-3.883zm0 0" fill="#fff" fill-opacity=".588"/><path d="M959.908 615.06c-177.306 0-319.97 142.663-319.97 319.969 0 177.306 142.664 319.97 319.97 319.97 177.306 0 319.97-142.664 319.97-319.97 0-177.306-142.664-319.97-319.97-319.97zm0 159.984c88.81 0 159.985 71.49 159.985 159.985 0 88.81-71.174 159.985-159.985 159.985-88.495 0-159.984-71.175-159.984-159.985 0-88.496 71.489-159.985 159.984-159.985zm0 0" transform="scale(.0124)" fill="url(#h)" stroke-width="11.339" stroke-linecap="round" stroke="#333"/><path d="M11.906 16.188c-.152 0-.308.125-.496.37-.617.872-1.015 1.368-.992 1.985v.281c.02-.578.406-1.066.992-1.89.188-.25.344-.375.496-.375.156 0 .313.125.496.375.621.867.993 1.363.993 1.984v-.375c0-.617-.372-1.113-.993-1.984-.183-.247-.34-.372-.496-.372zm0 0" fill="#fff" fill-opacity=".392"/><path d="M10.418 18.45v.093zm0 1.687v.394c0 .274.223.496.496.496h1.984a.494.494 0 0 0 .497-.496v-.394a.492.492 0 0 1-.497.496h-1.984a.494.494 0 0 1-.496-.496zm0 0M11.906 15.816c-.152 0-.308.125-.496.371-.617.868-1.015 1.368-.992 1.985v.277c.02-.574.406-1.066.992-1.89.188-.247.344-.372.496-.372.156 0 .313.125.496.372.621.87.993 1.367.993 1.984v-.371c0-.621-.372-1.117-.993-1.985-.183-.246-.34-.37-.496-.37zm0 0" fill-opacity=".235"/><path d="M11.906 16.187c-.152 0-.308.125-.496.372-.617.87-1.015 1.367-.992 1.984v1.988c0 .274.223.496.496.496h1.984a.494.494 0 0 0 .497-.496v-1.988c0-.617-.372-1.113-.993-1.984-.183-.247-.34-.372-.496-.372zm0 0" fill="none" stroke-width=".1406036" stroke-linecap="square" stroke-linejoin="bevel" stroke="#212121"/></svg>
